icons/night/css.svg

<svg xmlns="http://www.w3.org/2000/svg" data-name="Calque 1" viewBox="0 0 16 16"><path
    d="M3.5 2.5v2h7V6h-7v2h7v2.5L8 12l-2.5-1.5v-1h-2v2L8 14l4.5-2.5v-9h-9z"
    style="fill:#7aa2f7"
  /></svg>

<svg width="16" height="16" viewBox="0 0 16 16" fill="none" xmlns="http://www.w3.org/2000/svg">
<path d="M3.5 2.5V4.5H10.5V6H3.5V8H10.5V10.5L8 12L5.5 10.5V9.5H3.5V11.5L8 14L12.5 11.5V2.5H3.5Z" fill="#7AA2F7"/>
</svg>
